X:1
T:Title
%%score { 1 | 2 }
L:1/8
Q:1/4=100
M:4/4
K:Bb
V:1 treble nm="Grand Piano"
V:2 bass 
V:1
 [DF]2 [CE]2 [B,D][CE][DF][EG] | [DF]2 =E2 _E4 | A2 G2 FGAG | [EG]2 [DF]2 [DF]4 | %4
w: H.~C.~Clausen * * * * *||||
 [Fd]2 [Ec]2 [DB][DF][_D=E][=DF] | A2 G2 G4 | FecA G2 A2 |[M:5/8] [DB]- [DB]3 z | %8
w: ||||
[M:3/8] [DF]D[CE] |[M:4/4] [DF] [DF]2 [DF] FE E>D | E4 z ECE | A3 G FG F>E | D4 z [DF]D[DF] | %13
w: |||||
 [Fd]3 [Ec] [DB][DF] [_D=E]>[=DF] | [EG]4 z [GB][FA][EG] | [EG] [DF]2 [FB] AG F>c | [DB]6 z2 |] %17
w: ||||
V:2
 [B,,B,]2 [B,,B,]2 [B,,F,][B,,F,][B,,B,][B,,B,] | [B,,B,]2 [C,B,C]2 [F,A,C]4 | %2
 [F,CE]2 [F,B,E]2 [F,A,E][F,B,E][F,CE][F,CE] | [B,,B,]2 [B,,B,]2 [B,,B,]4 | %4
 [B,,B,]2 [B,,B,]2 [B,,B,][B,,B,][B,,B,][B,,B,] | [E,B,E]2 [E,B,E]2 [E,B,E]4 | %6
 [F,B,D][F,A,F][F,A,E][F,CE] [F,CE]2 [F,CE]2 |[M:5/8] [B,,B,]- [B,,B,]3 z | %8
[M:3/8] [B,,B,][B,,B,][B,,B,] |[M:4/4] [B,,B,] [B,,B,]2 [B,,B,] [F,B,D][F,A,C] [F,A,C]>[F,_A,=B,] | %10
 [F,A,C]4 z [F,A,C][F,A,][F,A,C] | [F,CE]3 [F,B,E] [F,A,E][F,A,E] [F,A,E]>[F,C] | %12
 [B,,F,B,]4 z [B,,B,][B,,B,][B,,B,] | [B,,B,]3 [B,,B,] [B,,B,][B,,B,] [B,,B,]>[B,,B,] | %14
 [E,B,]4 z [E,B,][E,B,][E,B,] | [B,,B,] [B,,B,]2 [D,B,] [F,CE][F,B,E] [F,A,E]>[F,E] | %16
 [B,,F,]6 z2 |] %17

